X: 1625
T: Joe Yates Unnamed Polka No 4
B: australian traditional tunes wiki
M:2/4
R: Polka
Q: 1/4=100
K:G
V:1 
|:"G"D4G3A|B2B4BB|"D7"d2c2 A2c2|"G"B6dd|"D7"d2c2 A2dd|"G"d2B2 G2BB|"D7"B2A2 E2G2|1"G"G2F2 E2^D2:|2"G"G4G4||
||"G"B4B3B|A2G2G4|D2G2 D2G2|"C"~F2E2E4|"C"c4c3c|"D7"B2A2 A2AA|G2F2 E2F2|"G"E2D2 (DEFG)|
"G"B4B3B|A2G2G4|D2G2 D2G2|"C"~F2E2E4|"C"e4 e3e|"D7"(e2d2) d3e|d2c2 B2A2|"G"G4G4||
% abcbook-tune_id 6342d53a5a5318ad9f9a9c1f


% abcbook-boost 0
% abcbook-tablature 
% abcbook-transpose 
% abcbook-lastupdated 1665324374718
% abcbook-soundfonts 
% abcbook-repeats 1
% NFF Book 2009

